X: 22659
T: Lake St. John
R: reel
M: 4/4
K: Gmajor
EF|:G2GF GABc|dgge dBG2|g2ge dBGB|ABAG EDEF|
G2GF GABc|dgge dBG2|g2ge dBGB|1 ABAF G2EF:|2 ABAF G2BA||
|:G2E2 EFGA|BcBA FGAG|F2D2 DEFG|ABAG EDEF|
G2GF GABc|dgge dBG2|g2ge dBGB|1 ABAF G2BA:|2 ABAF G2EF||

